!!!!SEGMENT: pl-kk--kk-i-487--005_anonim--szczesliwy-kogo-opatrznosc-boska.krn
!!!id: 18xx:1360
!!!COM: Anonim
!!!COM-rism: pe30004985
!!!CDT:
!!!CNT:
!!!OTL: Szczęśliwy kogo opatrzność boska
!!!PDT:
!!!SMS-siglum: PL-Kk
!!!SMS-shelfmark: Kk.I.487
!!!NIFC-rismID: 1001141051
!!!URL-scan: http://repozytorium.nifc.pl/skany/pl-kk-nut--i-487
!!!ONB-nifc:
!!!SMS-variant:
!!!SMS-altvar:
**kern	**text	**text	**kern	**text	**text	**kern	**text	**text	**kern
*part4	*part4	*part4	*part3	*part3	*part3	*part2	*part2	*part2	*part1
*staff4	*staff4	*staff4	*staff3	*staff3	*staff3	*staff2	*staff2	*staff2	*staff1
*I"Bas	*	*	*I"Tenor	*	*	*I"Alt.	*	*	*I"Sopran
*I'B	*	*	*I'T	*	*	*I'A	*	*	*I'S
*clefF4	*	*	*clefC4	*	*	*clefC3	*	*	*clefC1
*k[]	*	*	*k[]	*	*	*k[]	*	*	*k[]
*M3/4	*	*	*M3/4	*	*	*M3/4	*	*	*M3/4
*>[A,B,B]	*	*	*>[A,B,B]	*	*	*>[A,B,B]	*	*	*
=1	=1	=1	=1	=1	=1	=1	=1	=1	=1
*>A	*	*	*>A	*	*	*>A	*	*	*
*all\right	*	*	*all\right	*	*	*all\right	*	*	*
!	!	!	!	!	!	!	!	!	!LO:TX:t=P:problem:brak partii sopranu w tej części
!LO:TX:a:t=Adagio	!	!	!LO:TX:a:t=Adagio.	!	!	!LO:TX:a:t=adagio	!	!	!
4A\	Szczę-	nie	4c\	Szczę-	nie	4e\	Szczę-	nie	2.ryy
4A\	-sli-	tak	4c\	-sli-	tak	4e\	-sli-	tak	.
4G#X\	-wy	mie-	4d\	-wy	mie-	4e\	-wy	mie-	.
=2	=2	=2	=2	=2	=2	=2	=2	=2	=2
(4.A\	ko-	-dzia-	(4.c\	ko-	-dzia-	(4.e\	ko-	-dzia-	2.ryy
8E\)	.	.	8d\)	.	.	8g#X\)	.	.	.
4F\	-go	-ny	4c\	-go	-ny	4a\	-go	-ny	.
=3	=3	=3	=3	=3	=3	=3	=3	=3	=3
4D\	o-	mur	4d\	o-	mur	4f\	o-	mur	2.ryy
4E\	-pa-	jest	4c\	-pa-	jest	4e\	-pa-	jest	.
4E\	-trzność	be-	4B\	-trzność	be-	4e\	-trzność	be-	.
=4	=4	=4	=4	=4	=4	=4	=4	=4	=4
*2\right	*	*	*2\right	*	*	*	*	*	*
2A\	Bo-	-zpiecz-	2c\	Bo-	-zpiecz-	2e\	bos-	-zpie-	2.ryy
8A\	-ska	-ny	8c\	-ska	-ny	8e\	-ka	-czny	.
8r	.	.	8r	.	.	8r	.	.	.
=5	=5	=5	=5	=5	=5	=5	=5	=5	=5
4A\	ma	a-	4c\	ma	a-	4e\	ma	a-	2.ryy
4A\	w swej	-ni	4c\	w swej	-ni	4e\	w swej	-ni	.
4G#X\	o-	dy-	4d\	o-	dy-	4e\	o-	dy-	.
!LO:LB:g=original	!	!	!	!	!	!	!	!	!
=6	=6	=6	=6	=6	=6	=6	=6	=6	=6
(4.A\	-pie-	-ja-	(4.c\	-pie-	-ja-	(4.e\	-pie-	-ja-	2.ryy
8E\)	.	.	8d\)	.	.	8g#X\)	.	.	.
4F\	-ce	-ment	4c\	-ce	-ment	4a\	-ce	-ment	.
!	!	!	!LO:LB:g=original	!	!	!LO:LB:g=original	!	!	!
=7	=7	=7	=7	=7	=7	=7	=7	=7	=7
4D\	niech	tak	4d\	niech	tak	4f\	niech	tak	2.ryy
4E\	się	dłu-	4c\	się	dłu-	4e\	się	dłu-	.
4E\	nie	-go-	4B\	nie	-go-	4e\	nie	-go-	.
=8	=8	=8	=8	=8	=8	=8	=8	=8	=8
*	*	*	*	*	*	*2\right	*	*	*
2A\	tro-	-wie-	2c\	tro-	-wie-	2e\	tro-	-wie-	2.ryy
8AA/	-ska	-czny	8c\	-ska	-czny	8e\	-ska	-czny	.
8r	.	.	8r	.	.	8r	.	.	.
=9!|:	=9!|:	=9!|:	=9!|:	=9!|:	=9!|:	=9!|:	=9!|:	=9!|:	=9!|:
*>B	*	*	*>B	*	*	*>B	*	*	*
4F\	w żad-	jak	4c\	w żad-	jak	4f\	w żad-	jak	2.ryy
4E\	-nym	kto	4c\	-nym	kto	4g\	-nym	kto	.
4BB/	przy-	przy	4G/	przy-	przy	(8g\L	przy-	przy	.
.	.	.	.	.	.	8f\J)	.	.	.
=10	=10	=10	=10	=10	=10	=10	=10	=10	=10
(4.C/	-pa-	Bo-	(4.G/	-pa-	Bo-	(4.e\	-pa-	Bo-	2.ryy
8F\)	.	.	8B\)	.	.	8g\)	.	.	.
4E\	-dku	-gu	4c\	-dku	-gu	4g\	-dku	-gu	.
=11	=11	=11	=11	=11	=11	=11	=11	=11	=11
4F\	ten	ła-	4c\	ten	ła-	4a\	ten	ła-	2.ryy
4F\	nie	-ska-	4B\	nie	-ska-	4a\	nie	-ska-	.
4F\	szko-	-wym	4A\	szko-	-wym	4a\	szko-	-wym	.
=12	=12	=12	=12	=12	=12	=12	=12	=12	=12
2E\	-du-	sto-	2B\	-du-	sto-	2g#X\	-du-	sto-	2.ryy
4E\	-je	-i	4G#X/	-je	-i	4e\	-je	-i	.
!	!	!	!LO:LB:g=original	!	!	!LO:LB:g=original	!	!	!
=13	=13	=13	=13	=13	=13	=13	=13	=13	=13
4c\	ko-	żad-	4A\	ko-	żad-	4e\	ko-	żad-	2.ryy
4A\	-go	-nych	4c\	-go	-nych	4e\	-go	-nych	.
4E\	O-	się	4G#X/	O-	się	4e\	O-	się	.
=14	=14	=14	=14	=14	=14	=14	=14	=14	=14
(4.C/	-pa-	nie-	(4.A/	-pa-	nie-	4.e\	-pa-	nie-	2.ryy
8D/)	.	.	8G#X/)	.	.	8f\	.	.	.
4C/	-trzność	-szczęść	4A\	-trzność	-szczęść	4e\	-trzność	-szczęść	.
=15	=15	=15	=15	=15	=15	=15	=15	=15	=15
*	*	*	*	*	*	*^	*	*	*
4D\	Bo-	nie-	4A\	Bo-	nie-	4f\	4ryy	Bo-	nie-	2.ryy
4E\	-ska	-chaj	4c\	-ska	-chaj	4e/	4e\	-ska	-chaj	.
4E\	pia-	nie	4B\	pia-	nie	4e/	4d\	pia-	nie	.
=16	=16	=16	=16	=16	=16	=16	=16	=16	=16	=16
2AA/	-stu-	bo-	2A\	-stu-	bo-	2e/	2c\	-stu-	bo-	2.ryy
8AA/	-je	-i	8A\	-je	-i	8e/	8c\	-je	-i	.
8r	.	.	8r	.	.	8r	8ryy	.	.	.
*	*	*	*	*	*	*v	*v	*	*	*
=:|!	=:|!	=:|!	=:|!	=:|!	=:|!	=:|!	=:|!	=:|!	=:|!
*-	*-	*-	*-	*-	*-	*-	*-	*-	*-
!!!system-decoration: [(s1,s2,s3,s4)]
!!!ENC: Marta Lawrence
!!!END: 2021-01-18
!!!ENC: Tomasz Grochalski
!!!END: 2021-01-10
